public/images/sidebar/whats-new.svg

<svg width="16" height="16" viewBox="0 0 16 16" fill="none" xmlns="http://www.w3.org/2000/svg">
    <path fill-rule="evenodd" clip-rule="evenodd" d="M3.25928 8C3.58656 8 3.85187 8.22386 3.85187 8.5V13H12.1482V8.5C12.1482 8.22386 12.4135 8 12.7408 8C13.068 8 13.3334 8.22386 13.3334 8.5V13.5C13.3334 13.7761 13.068 14 12.7408 14H3.25928C2.932 14 2.66669 13.7761 2.66669 13.5V8.5C2.66669 8.22386 2.932 8 3.25928 8Z" fill="#162D45"/>
    <path fill-rule="evenodd" clip-rule="evenodd" d="M2 5.80953C2 5.54654 2.24421 5.33334 2.54545 5.33334H13.4545C13.7558 5.33334 14 5.54654 14 5.80953V8.19049C14 8.45348 13.7558 8.66668 13.4545 8.66668H2.54545C2.24421 8.66668 2 8.45348 2 8.19049V5.80953ZM3.09091 6.28572V7.7143H12.9091V6.28572H3.09091Z" fill="#162D45"/>
    <path fill-rule="evenodd" clip-rule="evenodd" d="M7.99998 5.33334C8.36817 5.33334 8.66665 5.56159 8.66665 5.84315V13.4902C8.66665 13.7718 8.36817 14 7.99998 14C7.63179 14 7.33331 13.7718 7.33331 13.4902V5.84315C7.33331 5.56159 7.63179 5.33334 7.99998 5.33334Z" fill="#162D45"/>
    <path fill-rule="evenodd" clip-rule="evenodd" d="M5.40739 3.14286C5.17164 3.14286 4.94555 3.23316 4.77885 3.39391C4.61215 3.55465 4.5185 3.77267 4.5185 4C4.5185 4.22733 4.61215 4.44535 4.77885 4.60609C4.94555 4.76684 5.17164 4.85714 5.40739 4.85714H7.27643C7.20409 4.67464 7.11251 4.47395 6.99926 4.27538C6.62654 3.62191 6.11488 3.14286 5.40739 3.14286ZM8.07405 5.42857C8.65513 5.31651 8.65509 5.31631 8.65505 5.3161L8.65495 5.31564L8.65472 5.3145L8.65407 5.31145L8.65208 5.30225C8.65044 5.29476 8.64817 5.2846 8.64523 5.27193C8.63937 5.24661 8.63085 5.21123 8.61943 5.16721C8.59664 5.0793 8.56214 4.95624 8.51399 4.80963C8.41838 4.51847 8.26564 4.1242 8.03773 3.72462C7.59564 2.94952 6.77396 2 5.40739 2C4.85731 2 4.32976 2.21071 3.94079 2.58579C3.55183 2.96086 3.33331 3.46957 3.33331 4C3.33331 4.53043 3.55183 5.03914 3.94079 5.41421C4.32976 5.78929 4.85731 6 5.40739 6H8.07405C8.25159 6 8.41977 5.92324 8.53233 5.79085C8.64488 5.65846 8.68995 5.48438 8.65513 5.31651L8.07405 5.42857Z" fill="#162D45"/>
    <path fill-rule="evenodd" clip-rule="evenodd" d="M7.96223 3.72462C8.40432 2.94952 9.226 2 10.5926 2C11.1427 2 11.6702 2.21071 12.0592 2.58579C12.4481 2.96086 12.6666 3.46957 12.6666 4C12.6666 4.53043 12.4481 5.03914 12.0592 5.41421C11.6702 5.78929 11.1427 6 10.5926 6H7.92591C7.74837 6 7.58019 5.92324 7.46763 5.79085C7.35508 5.65846 7.31001 5.48438 7.34483 5.31651L7.92591 5.42857C7.34483 5.31651 7.34487 5.31631 7.34491 5.3161L7.34501 5.31564L7.34524 5.3145L7.34589 5.31145L7.34788 5.30225C7.34952 5.29476 7.35179 5.2846 7.35473 5.27193C7.36059 5.24661 7.36911 5.21123 7.38053 5.16721C7.40332 5.0793 7.43782 4.95624 7.48597 4.80963C7.58158 4.51847 7.73432 4.1242 7.96223 3.72462ZM8.72353 4.85714H10.5926C10.8283 4.85714 11.0544 4.76684 11.2211 4.60609C11.3878 4.44535 11.4815 4.22733 11.4815 4C11.4815 3.77267 11.3878 3.55465 11.2211 3.39391C11.0544 3.23316 10.8283 3.14286 10.5926 3.14286C9.88508 3.14286 9.37342 3.62191 9.0007 4.27538C8.88745 4.47395 8.79587 4.67464 8.72353 4.85714ZM8.50679 5.5416C8.50676 5.54175 8.50676 5.54174 8.5068 5.54156L8.50679 5.5416Z" fill="#162D45"/>
</svg>

<svg width="16" height="16" fill="none" xmlns="http://www.w3.org/2000/svg"><path fill-rule="evenodd" clip-rule="evenodd" d="M3.26 8c.327 0 .592.224.592.5V13h8.296V8.5c0-.276.266-.5.593-.5.327 0 .592.224.592.5v5c0 .276-.265.5-.592.5H3.259c-.327 0-.592-.224-.592-.5v-5c0-.276.265-.5.592-.5z" fill="#162D45"/><path fill-rule="evenodd" clip-rule="evenodd" d="M2 5.81c0-.263.244-.477.545-.477h10.91c.3 0 .545.214.545.477v2.38c0 .263-.244.477-.546.477H2.545c-.3 0-.545-.214-.545-.477V5.81zm1.09.476v1.428h9.82V6.286H3.09z" fill="#162D45"/><path fill-rule="evenodd" clip-rule="evenodd" d="M8 5.333c.368 0 .667.229.667.51v7.647c0 .282-.299.51-.667.51-.368 0-.667-.228-.667-.51V5.843c0-.281.299-.51.667-.51z" fill="#162D45"/><path fill-rule="evenodd" clip-rule="evenodd" d="M5.407 3.143a.906.906 0 00-.628.25.842.842 0 00-.26.607c0 .227.093.445.26.606.167.16.393.251.628.251h1.87a4.61 4.61 0 00-.278-.582c-.372-.653-.884-1.132-1.592-1.132zm2.667 2.286l.581-.113V5.31l-.003-.009a2.503 2.503 0 00-.033-.135 5.993 5.993 0 00-.582-1.443C7.597 2.95 6.775 2 5.408 2c-.55 0-1.077.21-1.466.586A1.964 1.964 0 003.333 4c0 .53.219 1.04.608 1.414.389.375.916.586 1.466.586h2.667a.601.601 0 00.458-.21.556.556 0 00.123-.473l-.58.112z" fill="#162D45"/><path fill-rule="evenodd" clip-rule="evenodd" d="M7.962 3.725C8.404 2.95 9.226 2 10.592 2c.55 0 1.078.21 1.467.586.39.375.608.884.608 1.414 0 .53-.219 1.04-.608 1.414A2.114 2.114 0 0110.593 6H7.926a.601.601 0 01-.458-.21.556.556 0 01-.123-.473l.58.112-.58-.113V5.31l.003-.009a2.503 2.503 0 01.033-.135 5.993 5.993 0 01.582-1.443zm.762 1.132h1.869c.235 0 .461-.09.628-.25a.842.842 0 00.26-.607.842.842 0 00-.26-.606.906.906 0 00-.628-.251c-.708 0-1.22.479-1.592 1.132a4.61 4.61 0 00-.277.582zm-.217.685z" fill="#162D45"/></svg>
